X:1
T:Title
%%score { ( 1 3 ) | ( 2 4 ) }
L:1/8
M:4/4
K:F
V:1 treble nm="Grand Piano"
V:3 treble 
V:2 bass 
V:4 bass 
V:1
 z4 z2[Q:1/4=100] [CAc][CGB] | [CFA]2 [CFA]2 [CAc]2 [CFA][CGB] | [FA][EG][EG][EG] [EG]2 G>A | %3
 B6 z2 | A6 z2 | A2 A2 c2 A[FA] |[M:3/4] [FB][FA] [FB][Fc] [Fd]2 |[M:1/4] [Fd][Fd] | %8
[M:4/4] [Fc]3 [DFB] [CFA]2 [B,EG]2 | [A,DF]3 [CEG] [CFA]2 [CFA][CGB] | %10
 [FAc]3 [DGB] [CFA]2 [B,EG]2 |[M:3/4] [A,F]6 |] %12
V:2
 z4 z2 F,F, | F,2 F,2 F,2 F,F, | [C,C][C,C][C,C][C,C] [C,C]2[K:treble] E>F | %3
 G6[K:bass][K:treble] z2 | F6[K:bass] z2 | [F,CF]2 [F,CF]2 [F,A,F]2 [F,CF][_E,C] | %6
[M:3/4] [D,B,][_E,C] [D,B,][C,A,] [B,,B,]2 |[M:1/4] [B,,B,][B,,B,] |[M:4/4] [C,A,]3 C, C,2 C,2 | %9
 D,3 C, F,2 F,F, | F,3 B,, C,2 C,2 |[M:3/4] F,6 |] %12
V:3
 x8 | x8 | x8 | z2 C>C C2 c>B | z2 C>C C2 FG | x8 |[M:3/4] x6 |[M:1/4] x2 |[M:4/4] x8 | x8 | x8 | %11
[M:3/4] x6 |] %12
V:4
 x8 | x8 | x6[K:treble] x2 | z2[K:bass] C,>C, C,2[K:treble] A>G | %4
 z2[K:bass] F,>F, F,2 [F,A,][F,B,E] | x8 |[M:3/4] x6 |[M:1/4] x2 |[M:4/4] x8 | x8 | x8 | %11
[M:3/4] x6 |] %12

